app/dist/common/images/timken.svg

<svg height="18" width="18" xmlns="http://www.w3.org/2000/svg"><path d="m0 0h18v18h-18z" fill="#ff8300"/><path d="m7 14v-1c1.11 0 1-.833 1-.833v-6.167h-1.414s-.582.11-.582.748v1.252h-1v-3h7.996v3h-1v-1.226s.016-.801-.575-.774h-1.425v6.167s-.066.833 1 .833v1z" fill="#fff"/></svg>

<!-- by TradingView --><svg width="18" height="18" xmlns="http://www.w3.org/2000/svg"><path fill="#FF8300" d="M0 0h18v18H0z"/><path d="M7 14v-1c1.11 0 1-.833 1-.833V6H6.586s-.582.11-.582.748V8h-1V5H13v3h-1V6.774s.016-.801-.575-.774H10v6.167S9.934 13 11 13v1H7z" fill="#fff"/></svg>
